images/instagram_white.svg

<svg width="16" height="16" viewBox="0 0 16 16" fill="none" xmlns="http://www.w3.org/2000/svg">
<path fill-rule="evenodd" clip-rule="evenodd" d="M8 0C3.58172 0 0 3.58173 0 8C0 12.4183 3.58172 16 8 16C12.4183 16 16 12.4183 16 8C16 3.58173 12.4183 0 8 0ZM6.24191 3.75887C6.69703 3.73816 6.84245 3.7331 8.00122 3.7331H7.99988C9.15901 3.7331 9.3039 3.73816 9.75901 3.75887C10.2132 3.77967 10.5235 3.85159 10.7955 3.9571C11.0764 4.06599 11.3137 4.21176 11.551 4.4491C11.7884 4.68626 11.9341 4.92431 12.0435 5.20493C12.1484 5.47622 12.2204 5.78627 12.2417 6.24049C12.2621 6.69561 12.2675 6.84104 12.2675 7.99981C12.2675 9.15857 12.2621 9.30365 12.2417 9.75875C12.2204 10.2128 12.1484 10.5229 12.0435 10.7943C11.9341 11.0749 11.7884 11.3129 11.551 11.5501C11.314 11.7874 11.0763 11.9335 10.7957 12.0425C10.5243 12.148 10.2139 12.2199 9.75963 12.2407C9.30452 12.2615 9.15954 12.2665 8.00068 12.2665C6.84201 12.2665 6.69667 12.2615 6.24156 12.2407C5.78742 12.2199 5.47728 12.148 5.20581 12.0425C4.92536 11.9335 4.68732 11.7874 4.45025 11.5501C4.213 11.3129 4.06722 11.0749 3.95815 10.7942C3.85273 10.5229 3.78082 10.2129 3.75993 9.75866C3.73931 9.30355 3.73415 9.15857 3.73415 7.99981C3.73415 6.84104 3.73949 6.69552 3.75984 6.24041C3.78029 5.78635 3.85229 5.47622 3.95807 5.20485C4.0674 4.92431 4.21318 4.68626 4.45051 4.4491C4.68767 4.21185 4.92572 4.06608 5.20634 3.9571C5.47764 3.85159 5.78768 3.77967 6.24191 3.75887Z" fill="#F2F2F2"/>
<path fill-rule="evenodd" clip-rule="evenodd" d="M7.61506 4.50302L7.85561 4.50297L7.99781 4.50302C9.13703 4.50302 9.27205 4.50711 9.72192 4.52755C10.1379 4.54657 10.3637 4.61608 10.5141 4.67448C10.7132 4.75182 10.8552 4.84426 11.0044 4.9936C11.1538 5.14294 11.2462 5.28515 11.3237 5.48427C11.3821 5.63449 11.4517 5.86027 11.4707 6.27628C11.4911 6.72607 11.4955 6.86118 11.4955 7.99985C11.4955 9.13854 11.4911 9.27364 11.4707 9.72343C11.4516 10.1394 11.3821 10.3652 11.3237 10.5154C11.2464 10.7145 11.1538 10.8563 11.0044 11.0056C10.8551 11.1549 10.7133 11.2474 10.5141 11.3247C10.3639 11.3834 10.1379 11.4527 9.72192 11.4717C9.27214 11.4921 9.13703 11.4966 7.99781 11.4966C6.85851 11.4966 6.72349 11.4921 6.27371 11.4717C5.8577 11.4525 5.63192 11.383 5.48143 11.3246C5.28232 11.2473 5.1401 11.1548 4.99076 11.0055C4.84143 10.8561 4.74898 10.7143 4.67147 10.5151C4.61307 10.3649 4.54347 10.1391 4.52453 9.72307C4.50409 9.27329 4.5 9.13817 4.5 7.99879C4.5 6.85939 4.50409 6.72499 4.52453 6.27521C4.54356 5.85921 4.61307 5.63343 4.67147 5.48303C4.7488 5.28391 4.84143 5.14169 4.99076 4.99235C5.1401 4.84302 5.28232 4.75057 5.48143 4.67306C5.63183 4.6144 5.8577 4.54506 6.27371 4.52595C6.66731 4.50817 6.81985 4.50283 7.61506 4.50195V4.50302ZM10.2754 5.21164C9.99268 5.21164 9.76335 5.44072 9.76335 5.72347C9.76335 6.00615 9.99268 6.23548 10.2754 6.23548C10.558 6.23548 10.7874 6.00615 10.7874 5.72347C10.7874 5.4408 10.558 5.21146 10.2754 5.21146V5.21164ZM5.80676 8.00062C5.80676 6.79059 6.78779 5.80953 7.9978 5.80948C9.20786 5.80948 10.1887 6.79056 10.1887 8.00062C10.1887 9.21067 9.20795 10.1913 7.99789 10.1913C6.78783 10.1913 5.80676 9.21067 5.80676 8.00062Z" fill="#F2F2F2"/>
<path d="M8.00036 6.57812C8.78579 6.57812 9.4226 7.21484 9.4226 8.00036C9.4226 8.78579 8.78579 9.42261 8.00036 9.42261C7.21484 9.42261 6.57812 8.78579 6.57812 8.00036C6.57812 7.21484 7.21484 6.57812 8.00036 6.57812Z" fill="#F2F2F2"/>
</svg>

<svg xmlns="http://www.w3.org/2000/svg" width="16" height="16" fill="none" xmlns:v="https://vecta.io/nano"><path d="M8 0a8 8 0 1 0 0 16A8 8 0 1 0 8 0zM6.242 3.759a30.29 30.29 0 0 1 1.759-.026H8l1.759.026s.764.093 1.036.198c.281.109.518.255.755.492a2.09 2.09 0 0 1 .492.756c.105.271.177.581.198 1.036L12.266 8l-.026 1.759c-.021.454-.093.764-.198 1.036a2.09 2.09 0 0 1-.492.756c-.237.237-.475.383-.755.492-.271.105-.582.177-1.036.198L8 12.267c-1.159 0-1.304-.005-1.759-.026s-.764-.093-1.036-.198a2.09 2.09 0 0 1-.756-.492 2.09 2.09 0 0 1-.492-.756c-.105-.271-.177-.581-.198-1.036L3.733 8l.027-1.76c.02-.454.092-.764.198-1.036a2.09 2.09 0 0 1 .492-.756 2.09 2.09 0 0 1 .756-.492c.271-.106.581-.177 1.036-.198zm1.373.744h.241.142l1.724.025c.416.019.642.089.792.147a1.32 1.32 0 0 1 .49.319 1.32 1.32 0 0 1 .319.491c.058.15.128.376.147.792L11.496 8l-.025 1.724c-.019.416-.089.642-.147.792a1.32 1.32 0 0 1-.319.49 1.32 1.32 0 0 1-.49.319c-.15.059-.376.128-.792.147l-1.724.025c-1.139 0-1.274-.005-1.724-.025-.416-.019-.642-.089-.792-.147a1.32 1.32 0 0 1-.491-.319c-.149-.149-.242-.291-.319-.49-.058-.15-.128-.376-.147-.792L4.5 7.999l.025-1.724c.019-.416.089-.642.147-.792a1.32 1.32 0 0 1 .319-.491 1.32 1.32 0 0 1 .491-.319c.15-.059.376-.128.792-.147l1.341-.024v.001zm2.66.709a.512.512 0 1 0 0 1.024.512.512 0 1 0 0-1.024h0zM5.807 8.001a2.191 2.191 0 1 1 4.382 0 2.191 2.191 0 1 1-4.382 0z" fill-rule="evenodd" fill="#f2f2f2"/><path d="M8 6.578c.785 0 1.422.637 1.422 1.422S8.786 9.423 8 9.423 6.578 8.786 6.578 8 7.215 6.578 8 6.578z" fill="#f2f2f2"/></svg>
